Numix-Light/scalable/status/media-playlist-repeat-song-rtl-symbolic.svg

<?xml version="1.0" encoding="UTF-8" standalone="no"?>
<svg
   xmlns:dc="http://purl.org/dc/elements/1.1/"
   xmlns:cc="http://creativecommons.org/ns#"
   xmlns:rdf="http://www.w3.org/1999/02/22-rdf-syntax-ns#"
   xmlns:svg="http://www.w3.org/2000/svg"
   xmlns="http://www.w3.org/2000/svg"
   xmlns:sodipodi="http://sodipodi.sourceforge.net/DTD/sodipodi-0.dtd"
   xmlns:inkscape="http://www.inkscape.org/namespaces/inkscape"
   width="16"
   height="16"
   id="svg2"
   version="1.1"
   inkscape:version="0.91 r"
   sodipodi:docname="media-playlist-repeat-song-rtl-symbolic.svg">
  <metadata
     id="metadata10">
    <rdf:RDF>
      <cc:Work
         rdf:about="">
        <dc:format>image/svg+xml</dc:format>
        <dc:type
           rdf:resource="http://purl.org/dc/dcmitype/StillImage" />
        <dc:title />
      </cc:Work>
    </rdf:RDF>
  </metadata>
  <defs
     id="defs8" />
  <sodipodi:namedview
     pagecolor="#ffffff"
     bordercolor="#666666"
     borderopacity="1"
     objecttolerance="10"
     gridtolerance="10"
     guidetolerance="10"
     inkscape:pageopacity="0"
     inkscape:pageshadow="2"
     inkscape:window-width="1920"
     inkscape:window-height="1056"
     id="namedview6"
     showgrid="true"
     inkscape:zoom="29.5"
     inkscape:cx="-1.0388438"
     inkscape:cy="9.3946313"
     inkscape:window-x="0"
     inkscape:window-y="24"
     inkscape:window-maximized="1"
     inkscape:current-layer="svg2">
    <inkscape:grid
       type="xygrid"
       id="grid4138" />
  </sodipodi:namedview>
  <path
     style="opacity:1;fill:#353535;fill-opacity:1;fill-rule:nonzero;stroke:none;stroke-width:1;stroke-linecap:square;stroke-linejoin:miter;stroke-miterlimit:4;stroke-dasharray:none;stroke-dashoffset:0;stroke-opacity:1"
     d="M 3.5,9 C 1.5670034,9 2.7614237e-8,10.567003 0,12.5 0,14.432997 1.5670034,16 3.5,16 5.4329966,16 7,14.432997 7,12.5 7,10.567003 5.4329966,9 3.5,9 Z m -0.5,1 1,0 0,5 -1,0 z"
     id="path4134"
     inkscape:connector-curvature="0"
     sodipodi:nodetypes="sssssccccc" />
  <path
     style="color:#353535;fill:#353535;fill-opacity:1"
     d="M 9.9101562,1.0019531 C 9.6392329,1.0196783 9.3764229,1.1393063 9.2011719,1.3710938 8.3303399,2.2493237 7.847727,3.1089456 7,4.0097656 7.898484,4.9599459 8.4278386,5.8734948 9.3535156,6.796875 9.9614771,7.359075 11.088793,6.8551881 11.041016,6.0175781 11.060636,5.5822678 10.720399,5.2861756 10.4375,5.0097656 11.69366,5.0219656 10.745752,4.95565 12,5 c 1,0 1,-1e-7 1,1 l 0,4 c 0,1 0,1 -1,1 L 7.7246094,11 C 7.8921276,11.471283 8,11.971248 8,12.5 8,12.671403 7.9678782,12.83358 7.9492188,13 L 12,13 c 3,-10e-7 3,0 3,-3 l 0,-4 c 0,-3.0000004 0,-3 -3,-3 -1.124967,0 -0.437533,0.00977 -1.5625,0.00977 0.375792,-0.32137 0.725502,-0.7946431 0.529297,-1.3144531 C 10.83658,1.2234437 10.361695,0.97241123 9.9101562,1.0019531 Z M 4,3 c -3,0 -3,-4e-7 -3,3 L 1,8.7597656 C 1.5829036,8.3692356 2.2675965,8.1329002 3,8.0507812 L 3,6 C 3,4.9999999 4,5 4,5 l 1,0 c 0,0 1,3e-7 1,-1 C 6,3 6,3 5,3 Z"
     id="path4-1"
     inkscape:connector-curvature="0"
     sodipodi:nodetypes="sccccccssscscssssccsssccsccsss" />
</svg>

<svg xmlns="http://www.w3.org/2000/svg" viewBox="0 0 16 16">
 <path d="m 3.5 9 c -1.933 0 -3.5 1.567 -3.5 3.5 0 1.933 1.567 3.5 3.5 3.5 1.933 0 3.5 -1.567 3.5 -3.5 0 -1.933 -1.567 -3.5 -3.5 -3.5 m -0.5 1 1 0 0 5 -1 0 z" style="fill:#353535;opacity:1;fill-opacity:1;stroke:none;fill-rule:nonzero"/>
 <path d="m 9.91 1 c -0.271 0.018 -0.534 0.137 -0.709 0.369 -0.871 0.878 -1.353 1.738 -2.201 2.639 0.898 0.95 1.428 1.864 2.354 2.787 0.608 0.562 1.735 0.058 1.688 -0.779 0.02 -0.435 -0.321 -0.731 -0.604 -1.01 1.256 0.012 0.308 -0.054 1.563 -0.01 c 1 0 1 0 1 1 l 0 4 c 0 1 0 1 -1 1 l -4.275 0 c 0.168 0.471 0.275 0.971 0.275 1.5 0 0.171 -0.032 0.334 -0.051 0.5 l 4.051 0 c 3 0 3 0 3 -3 l 0 -4 c 0 -3 0 -3 -3 -3 -1.125 0 -0.438 0.01 -1.563 0.01 0.376 -0.321 0.726 -0.795 0.529 -1.314 c -0.13 -0.472 -0.605 -0.723 -1.057 -0.693 m -5.91 1.998 c -3 0 -3 0 -3 3 l 0 2.76 c 0.583 -0.391 1.268 -0.627 2 -0.709 l 0 -2.051 c 0 -1 1 -1 1 -1 l 1 0 c 0 0 1 0 1 -1 c 0 -1 0 -1 -1 -1" style="fill:#353535;fill-opacity:1;color:#353535"/>
</svg>
